chains/kyvetestnet/logo.svg

<svg width="110" height="96" viewBox="0 0 110 96" fill="none" xmlns="http://www.w3.org/2000/svg">
<path d="M109.06 95.2279L81.3379 95.2974L54.0557 65.5217L68.0507 50.8213L109.06 95.2279Z" fill="#0F011D"/>
<path d="M31.9459 0.00878906V44.6609L12.2959 23.8191V0.00878906H31.9459Z" fill="#0F011D"/>
<path d="M31.922 88.765L31.9459 95.2956H12.2959V67.9507L31.922 88.765Z" fill="#0F011D"/>
<path d="M109.489 0L31.9399 81.4565L0.353516 47.9569V18.4842L32.2453 52.3083L81.5656 0H109.489Z" fill="#338678"/>
</svg>

<svg xmlns="http://www.w3.org/2000/svg" width="110" height="96" fill="none" viewBox="0 0 110 96"><path fill="#0F011D" d="m109.06 95.228-27.722.07-27.282-29.776 13.995-14.7zM31.946.009V44.66l-19.65-20.842V.01zm-.024 88.756.024 6.53h-19.65V67.952z"/><path fill="#338678" d="m109.489 0-77.55 81.457-31.585-33.5V18.484l31.891 33.824L81.565 0z"/></svg>
